X:1
T:Title
%%score { ( 1 3 5 ) | ( 2 4 ) }
L:1/8
Q:1/4=106
M:4/4
K:Eb
V:1 treble nm="Grand Piano"
V:3 treble 
V:5 treble 
V:2 bass 
V:4 bass 
V:1
 B2 =A2 [_Gc]2 [=GB]2 | [EG]3 [DF] E4 | F2 G2 B3 A | [EG]4 z4 | B2 =A2 [_Gc]2 [=GB]2 | [DG]4 z4 | %6
w: J.~I.~Tucker * * *||||||
 [A,CF]2 [CFA]2 [B,EG]3 [A,DF] | [G,E]8 | [DF]2 [DF]2 [E_G]2 [EG]2 | [_GB][FA] [EG]2 [DF]4 | %10
w: ||||
 F2 G2 =A2 c2 | [DB]8 | B2 =A2 [_Gc]2 [B,=GB]2 | [B,DG]3 [A,DF] [G,E]4 | %14
w: ||||
 [A,EF]2 [CEA]2 [B,EG]2 D->[DF] |[M:8/4] [G,E]8 z8 |[M:4/4] [CEA]8 | [B,EG]8 |] %18
w: ||||
V:2
 [E,G,E]2 [E,_G,E]2 [E,=A,]2 [E,B,]2 | [B,,B,]3 [B,,A,] [C,G,]4 | [A,C]2 [G,B,=E]2 [F,CF]3 [F,CF] | %3
 B,2 z2 [B,D]4 | [E,G,E]2 [E,_G,E]2 [E,=A,]2 [E,B,]2 | [B,,B,]2 z D C,4 | A,,2 F,,2 B,,3 B,, | %7
 E,8 | [B,,B,]2 [B,,B,]2 [B,,B,]2 [B,,B,]2 | [B,,B,]2 [B,,B,]2 [B,,B,]4 | %10
 [F,=A,E]2 [F,B,E]2 [F,CE]2 [F,A,E]2 | B,4 z4 | [E,G,E]2 [E,_G,E]2 [E,=A,]2 E,2 | B,,3 B,, C,4 | %14
 A,,2 F,,2 B,,2 z z/ A,/ |[M:8/4] E,8 z8 |[M:4/4] A,,8 | E,8 |] %18
V:3
 x8 | x8 | x8 | z2 =A,2 F4 | x8 | z2 z F [G,E]4 | x8 | x8 | x8 | x8 | x8 | z4 A,4 | x8 | x8 | %14
 z4 z2 [B,G]2 |[M:8/4] x16 |[M:4/4] x8 | x8 |] %18
V:4
 x8 | x8 | x8 | B,,8 | x8 | z2 =B,,2 z4 | x8 | x8 | x8 | x8 | x8 | B,,8 | x8 | x8 | z4 z2 B,,2 | %15
[M:8/4] x16 |[M:4/4] x8 | x8 |] %18
V:5
 x8 | x8 | x8 | x8 | x8 | z2 A,2 z4 | x8 | x8 | x8 | x8 | x8 | x8 | x8 | x8 | x8 |[M:8/4] x16 | %16
[M:4/4] x8 | x8 |] %18

